X:144
%%topspace -50
T:Copious Amounts
M:9/8
L:1/8
K:Bm
"Bm"F3 FDB, FDB, | "Bm"F3 FDB, "A"A,CE | "Bm"F3 FDB, FDB, | "A"C2C A,B,C "Bm"B,2D :|
|: "F#m"F3 FBc "D"d2A | "Bm"B3 BAF GFD | "F#m"F3 FBc "D"d2A | "Bm"B3 Bcd "A"ecA :|
|: "Bm"f2f fgf "A"ecA | "G"B2B BcB "D"AFD | "Bm"f2f fgf gab | "A"a2e fec "Bm"B3 :|

